X:1
T:[ID 2-45a]
T:[ID 2-45a]
T:Bezeichnung standardisiert: Polonaise Polon\"aise In dieser Quelle auch als: Polonaise In dieser Quelle auch als: Polonoise
T:Urheber unbekannt Datum in der hier transkribierten schriftlichen Quelle: 1767
C:Urheber unbekannt
C:Datum in der hier transkribierten schriftlichen Quelle: 1767
L:1/8
M:3/4
K:D
V:1 treble 
V:1
 f/e/d/c/ FFFF | F/d/e/f/ g2 f2 | f/e/d/c/ FFFF | c/B/A/G/ F2 F2 :: Ff fe/d/ e2 | Fe ed/c/ d2 | %6
 Ff fe/d/ e2 | Fe ed/c/ d2 | fg/e/ f2 e2 | d/A/F/E/ F4 :| %10

